svg/arrows_long_left.svg

<svg xmlns="http://www.w3.org/2000/svg" viewBox="0 0 32 32" enable-background="new 0 0 32 32"><path d="M 10.8125 9.28125 L 4.8125 15.28125 L 4.09375 16 L 4.8125 16.71875 L 10.8125 22.71875 L 12.21875 21.28125 L 7.9375 17 L 28 17 L 28 15 L 7.9375 15 L 12.21875 10.71875 L 10.8125 9.28125 z" color="#000" overflow="visible" enable-background="accumulate"/></svg>

<svg xmlns="http://www.w3.org/2000/svg" viewBox="0 0 32 32"><path d="M10.813 9.28l-6 6-.72.72.72.72 6 6 1.406-1.44L7.936 17H28v-2H7.937l4.282-4.28-1.408-1.44z"/></svg>
